svgs/sharp-regular/dial-low.svg

<svg xmlns="http://www.w3.org/2000/svg" viewBox="0 0 576 512"><!--! Font Awesome Pro 6.4.2 by @fontawesome - https://fontawesome.com License - https://fontawesome.com/license (Commercial License) Copyright 2023 Fonticons, Inc. --><path d="M320 0H256V64h64V0zM128 64H64v64h64V64zm384 0H448v64h64V64zm0 192v64h64V256H512zm0 192H448v64h64V448zM64 448v64h64V448H64zM0 256v64H64V256H0zM288 400c-53.6 0-98.4-37.7-109.4-88H288h24V264H288 178.6c11-50.3 55.8-88 109.4-88c61.9 0 112 50.1 112 112s-50.1 112-112 112zM128 288a160 160 0 1 0 320 0 160 160 0 1 0 -320 0z"/></svg>

<svg xmlns="http://www.w3.org/2000/svg" viewBox="0 0 576 512"><!--! Font Awesome Pro 6.6.0 by @fontawesome - https://fontawesome.com License - https://fontawesome.com/license (Commercial License) Copyright 2024 Fonticons, Inc. --><path d="M320 0L256 0l0 64 64 0 0-64zM128 64L64 64l0 64 64 0 0-64zm384 0l-64 0 0 64 64 0 0-64zm0 192l0 64 64 0 0-64-64 0zm0 192l-64 0 0 64 64 0 0-64zM64 448l0 64 64 0 0-64-64 0zM0 256l0 64 64 0 0-64L0 256zM288 400c-53.6 0-98.4-37.7-109.4-88L288 312l24 0 0-48-24 0-109.4 0c11-50.3 55.8-88 109.4-88c61.9 0 112 50.1 112 112s-50.1 112-112 112zM128 288a160 160 0 1 0 320 0 160 160 0 1 0 -320 0z"/></svg>
